X:1
T:Title
%%score ( 1 2 ) { 3 | ( 4 5 ) }
L:1/8
Q:1/4=160
M:4/2
K:Eb
V:1 treble nm="Grand Piano, Treble Clef"
V:2 treble 
V:3 bass nm="Choir Pad, Bath (Cooke), 66.86.88"
V:4 bass 
V:5 bass 
V:1
 [EG]4 [EG]2 [EG]2 [EF]4 [DA]4 | [EG]8 [EG]4 [FG]2 [EG]2 | [FA]4 [DF]4 [EG]8 | %3
w: By~William~Henry~Cooke~(1838\-1898) * * * *|||
 [EG]4 [EG]2 [EG]2 [F=A]4 [CF]4 | [FB]4 [Ec]4 [Dd]8 | [Fd]4 [FG]2 [Ec]2 [FB]4 [F=A]4 | %6
w: |||
 [FB]8 [DF]4 [DF]2 [DF]2 | [EG]4 [EG]4 [EA]4 [_DB]4 | [Cc]8 [EB]4 E2 E2 | A4 z4 z8 | E8 z8 |] %11
w: |||||
V:2
 x16 | x16 | x16 | x16 | x16 | x16 | x16 | x16 | x16 | E2 D2 [EG]2 [FA]2 [EF]4 [DF]4 | x16 |] %11
V:3
 B,4 B,2 B,2 B,4 B,4 | B,8 B,4 =B,2 C2 | C4 B,4 B,8 | B,4 B,2 B,2 C4 =A,4 | B,4 =A,4 B,8 | %5
 B,4 B,2[K:treble] C2 D4 C4 | D8 B,4[K:bass] B,2 B,2 | B,4 B,4 A,4 G,4 | A,8 B,4 B,2 B,2 | %9
 B,4 B,2 C2 B,8 | G,8 z8 |] %11
V:4
 E,4 E,2 E,2 B,,4 B,,4 | E,8 E,4 D,2 C,2 | A,,4 A,,4 E,8 | E,4 E,2 E,2 E,4 E,4 | D,4 C,4 B,,8 | %5
 B,,4 E,2 C,2 F,4 F,4 | B,,8 B,,4 B,,2 B,,2 | E,4 _D,4 C,4 B,,4 | A,,8 G,,4 G,2 G,2 | %9
 F,4 E,2 A,,2 B,,4 z2 A,2 | E,8 z8 |] %11
V:5
 x16 | x16 | x16 | x16 | x16 | x16 | x16 | x16 | x16 | z8 z4 B,,4 | x16 |] %11

